src/topics/icons/mozilla.svg

<svg height="134" preserveAspectRatio="xMidYMid" viewBox="0 0 512 134" width="512" xmlns="http://www.w3.org/2000/svg"><path d="m21.0831758 38.1244636c1.5508237 2.3941737 2.2347914 4.5297812 3.1010741 9.035483 6.0651253-5.920076 13.5440514-9.035483 21.7069452-9.035483 7.3722891 0 13.4225081 2.3941737 18.1042184 7.2805583 1.2612983 1.2246061 2.477878 2.804669 3.5270489 4.3554927 8.1468409-8.3446355 15.4434521-11.636051 25.2179413-11.636051 6.9612204 0 13.5589573 2.0817157 17.5876593 5.547993 5.031434 4.3480395 6.626976 9.575548 6.626976 21.7459308v63.3188986h-22.6185196v-58.7822377c0-10.6556781-1.2612984-12.716181-7.326997-12.716181-4.3474662 0-10.4578835 2.9651979-15.4744112 7.4869526v64.0114661h-22.0721484v-57.9469141c0-11.1108922-1.6104487-13.7194866-8.0860693-13.7194866-4.3021741 0-10.2612357 2.2284849-15.27719 6.7731724v64.8932283h-22.7710224v-62.1120654c0-12.8600837-.88176223-18.4155297-3.3286811-22.784782zm137.2344242 26.0687444c-1.596689 4.7126694-2.446919 10.9681361-2.446919 19.8453834 0 10.2371564 1.048024 17.9299296 2.947998 22.4362046 2.097769 4.872625 7.34305 7.304638 11.825819 7.304638 10.094401 0 14.411481-9.03663 14.411481-30.0819665 0-12.0104272-1.566303-19.8534098-4.68171-23.8654853-2.235938-2.9342387-5.867904-4.6817103-10.063441-4.6817103-5.578379 0-10.108734 3.4645573-11.993228 9.0429361zm41.907785-12.8589371c7.114297 8.3452088 10.291622 18.0807124 10.291622 32.5151258 0 15.3070025-3.510996 25.7637393-11.18829 34.4443393-6.74852 7.646334-15.641247 12.359004-29.352707 12.359004-24.214635 0-40.008385-18.097339-40.008385-46.0895631 0-28.016877 15.960585-46.6370811 40.008385-46.6370811 12.692675 0 22.604187 4.3635191 30.249375 13.4081751zm85.261478-11.6589836v16.0047299l-39.33875 56.8753838h40.874667l-5.578952 16.181885h-65.54509v-14.433267l41.878546-58.2719849h-38.383603v-16.3567468zm36.681997-2.0983418v91.1603405h-23.304208v-87.4974154zm2.735297-22.4218721c0 8.0126847-6.369556 14.4109074-14.42524 14.4109074-7.798837 0-14.212539-6.3982227-14.212539-14.4109074 0-7.99548511 6.627549-14.44817299 14.605835-14.44817299 7.814317 0 14.031944 6.45268788 14.031944 14.44817299zm39.704527 8.0126847v69.3914772c0 15.3293617.182888 17.3898647 1.581783 19.8218777.881189 1.580063 2.765683 2.432586 4.712096 2.432586.835897 0 1.336976 0 2.598848-.320485l3.982836 13.900655c-3.982836 1.558277-8.861768 2.426853-13.907534 2.426853-9.942472 0-17.937957-4.684004-20.705933-12.14745-1.747472-4.529208-2.127581-7.325851-2.127581-20.0185256v-66.4750114c0-11.643504-.302712-18.7578002-1.171288-26.79112431l23.83682-5.38861069c.835323 4.86517186 1.199953 10.610386 1.199953 23.1677581zm48.338114 0v69.3914772c0 15.3293617.198941 17.3898647 1.628221 19.8218777.819844 1.580063 2.704339 2.432586 4.651325 2.432586.881189 0 1.413227 0 2.64414-.320485l3.968503 13.900655c-3.968503 1.558277-8.848581 2.426853-13.910401 2.426853-9.924698 0-17.935663-4.684004-20.717399-12.14745-1.778431-4.529208-2.067956-7.325851-2.067956-20.0185256v-66.4750114c0-11.643504-.348577-18.7578002-1.246392-26.79112431l23.80414-5.38861069c.958587 4.86517186 1.245819 10.610386 1.245819 23.1677581zm66.778296 66.609741c-16.113087 0-21.767143 2.9336654-21.767143 13.5893439 0 6.930834 4.408238 11.628024 10.320287 11.628024 4.33256 0 8.711559-2.264604 12.162356-6.080032l.38011-19.1373359zm-30.204656-46.7895836c8.665693-3.6634984 16.11538-5.2143221 24.322993-5.2143221 14.988238 0 25.23342 5.5497129 28.743843 15.4744112 1.155808 3.6497389 1.687847 6.4314751 1.581783 16.0064498l-.563571 29.9019448v1.5794898c0 9.561788 1.581783 13.225287 8.394514 18.257867l-12.37563 14.288218c-5.44365-2.280084-10.291049-6.292733-12.557372-10.800728-1.717086 1.756072-3.648019 3.458824-5.411544 4.689737-4.316507 3.132607-10.624145 4.880078-17.921903 4.880078-19.835637 0-30.612859-10.109306-30.612859-27.817936 0-20.9083138 14.471106-30.6610169 42.803881-30.6610169 1.703326 0 3.314348 0 5.245281.1983678v-3.6325393c0-9.9338714-1.930933-13.2401931-10.503749-13.2401931-7.387768 0-16.158952 3.631966-25.705834 10.0846539l-9.925845-16.7047505c4.727576-2.9651978 8.209332-4.6897367 14.486012-7.2897314z" fill="#4e5050"/></svg>

<?xml version="1.0" encoding="UTF-8" standalone="no"?>
<svg width="512px" height="134px" viewBox="0 0 512 134" version="1.1" xmlns="http://www.w3.org/2000/svg" xmlns:xlink="http://www.w3.org/1999/xlink" preserveAspectRatio="xMidYMid">
    <g>
        <path d="M21.0831758,38.1244636 C22.6339995,40.5186373 23.3179672,42.6542448 24.1842499,47.1599466 C30.2493752,41.2398706 37.7283013,38.1244636 45.8911951,38.1244636 C53.2634842,38.1244636 59.3137032,40.5186373 63.9954135,45.4050219 C65.2567118,46.629628 66.4732915,48.2096909 67.5224624,49.7605146 C75.6693033,41.4158791 82.9659145,38.1244636 92.7404037,38.1244636 C99.7016241,38.1244636 106.299361,40.2061793 110.328063,43.6724566 C115.359497,48.0204961 116.955039,53.2480046 116.955039,65.4183874 L116.955039,128.737286 L94.3365194,128.737286 L94.3365194,69.9550483 C94.3365194,59.2993702 93.075221,57.2388673 87.0095224,57.2388673 C82.6620562,57.2388673 76.5516389,60.2040652 71.5351112,64.7258199 L71.5351112,128.737286 L49.4629628,128.737286 L49.4629628,70.7903719 C49.4629628,59.6794797 47.8525141,57.0708853 41.3768935,57.0708853 C37.0747194,57.0708853 31.1156578,59.2993702 26.0997035,63.8440577 L26.0997035,128.737286 L3.3286811,128.737286 L3.3286811,66.6252206 C3.3286811,53.7651369 2.44691887,48.2096909 0,43.8404386 L21.0831758,38.1244636 Z M158.3176,64.193208 C156.720911,68.9058774 155.870681,75.1613441 155.870681,84.0385914 C155.870681,94.2757478 156.918705,101.968521 158.818679,106.474796 C160.916448,111.347421 166.161729,113.779434 170.644498,113.779434 C180.738899,113.779434 185.055979,104.742804 185.055979,83.6974675 C185.055979,71.6870403 183.489676,63.8440577 180.374269,59.8319822 C178.138331,56.8977435 174.506365,55.1502719 170.310828,55.1502719 C164.732449,55.1502719 160.202094,58.6148292 158.3176,64.193208 Z M200.225385,51.3342709 C207.339682,59.6794797 210.517007,69.4149833 210.517007,83.8493967 C210.517007,99.1563992 207.006011,109.613136 199.328717,118.293736 C192.580197,125.94007 183.68747,130.65274 169.97601,130.65274 C145.761375,130.65274 129.967625,112.555401 129.967625,84.5631769 C129.967625,56.5462999 145.92821,37.9260958 169.97601,37.9260958 C182.668685,37.9260958 192.580197,42.2896149 200.225385,51.3342709 Z M285.486863,39.6752873 L285.486863,55.6800172 L246.148113,112.555401 L287.02278,112.555401 L281.443828,128.737286 L215.898738,128.737286 L215.898738,114.304019 L257.777284,56.0320341 L219.393681,56.0320341 L219.393681,39.6752873 L285.486863,39.6752873 Z M322.16886,37.5769455 L322.16886,128.737286 L298.864652,128.737286 L298.864652,41.2398706 L322.16886,37.5769455 Z M324.904157,15.1550734 C324.904157,23.1677581 318.534601,29.5659808 310.478917,29.5659808 C302.68008,29.5659808 296.266378,23.1677581 296.266378,15.1550734 C296.266378,7.15958829 302.893927,0.706900413 310.872213,0.706900413 C318.68653,0.706900413 324.904157,7.15958829 324.904157,15.1550734 Z M364.608684,23.1677581 L364.608684,92.5592353 C364.608684,107.888597 364.791572,109.9491 366.190467,112.381113 C367.071656,113.961176 368.95615,114.813699 370.902563,114.813699 C371.73846,114.813699 372.239539,114.813699 373.501411,114.493214 L377.484247,128.393869 C373.501411,129.952146 368.622479,130.820722 363.576713,130.820722 C353.634241,130.820722 345.638756,126.136718 342.87078,118.673272 C341.123308,114.144064 340.743199,111.347421 340.743199,98.6547464 L340.743199,32.179735 C340.743199,20.536231 340.440487,13.4219348 339.571911,5.38861069 L363.408731,0 C364.244054,4.86517186 364.608684,10.610386 364.608684,23.1677581 Z M412.946798,23.1677581 L412.946798,92.5592353 C412.946798,107.888597 413.145739,109.9491 414.575019,112.381113 C415.394863,113.961176 417.279358,114.813699 419.226344,114.813699 C420.107533,114.813699 420.639571,114.813699 421.870484,114.493214 L425.838987,128.393869 C421.870484,129.952146 416.990406,130.820722 411.928586,130.820722 C402.003888,130.820722 393.992923,126.136718 391.211187,118.673272 C389.432756,114.144064 389.143231,111.347421 389.143231,98.6547464 L389.143231,32.179735 C389.143231,20.536231 388.794654,13.4219348 387.896839,5.38861069 L411.700979,0 C412.659566,4.86517186 412.946798,10.610386 412.946798,23.1677581 Z M479.725094,89.7774991 C463.612007,89.7774991 457.957951,92.7111645 457.957951,103.366843 C457.957951,110.297677 462.366189,114.994867 468.278238,114.994867 C472.610798,114.994867 476.989797,112.730263 480.440594,108.914835 L480.820704,89.7774991 L479.725094,89.7774991 Z M449.520438,42.9879155 C458.186131,39.3244171 465.635818,37.7735934 473.843431,37.7735934 C488.831669,37.7735934 499.076851,43.3233063 502.587274,53.2480046 C503.743082,56.8977435 504.275121,59.6794797 504.169057,69.2544544 L503.605486,99.1563992 L503.605486,100.735889 C503.605486,110.297677 505.187269,113.961176 512,118.993756 L499.62437,133.281974 C494.18072,131.00189 489.333321,126.989241 487.066998,122.481246 C485.349912,124.237318 483.418979,125.94007 481.655454,127.170983 C477.338947,130.30359 471.031309,132.051061 463.733551,132.051061 C443.897914,132.051061 433.120692,121.941755 433.120692,104.233125 C433.120692,83.3248112 447.591798,73.5721081 475.924573,73.5721081 C477.627899,73.5721081 479.238921,73.5721081 481.169854,73.7704759 L481.169854,70.1379366 C481.169854,60.2040652 479.238921,56.8977435 470.666105,56.8977435 C463.278337,56.8977435 454.507153,60.5297095 444.960271,66.9823974 L435.034426,50.2776469 C439.762002,47.3124491 443.243758,45.5879102 449.520438,42.9879155 L449.520438,42.9879155 Z" fill="#4E5050"></path>
    </g>
</svg>
